X:0782
T:Mrs Muir of Caldwall's Strathspey
M:C|
L:1/8
Q:1/2=104
I: :| ||
N:second half is printed beginning g|f>de>c Td>AFD|f<de>c Td>AFD| i.e. bar 5 twice
Z:Jack Campin * www.campin.me.uk * 2009
K:D
d|AFA>B   A>BdF|AFA>B   A3B|AFA>B   A>BdF|EETFA  TB2B:|
g|f<de>c Td>AFD|f<de>c Td3g|f>de>c  dAFD |EE`FA   B2Bg|
  fdec   Td>AFD|f<de<c Td3g|f<ae<f Td>AFD|E<EF>A TB2B|]

